X:2875
T:Is far am bi bean bithidh molluchadh
O:england
M:4/4
L:1/8
Q:150
C:Stephen P. McNally
R:Scots Reel
K:D
|:(3BBB Bd cf=f^f|(3BBB Bd cABG|Aacd ~e3 d|cAdB edcA|
|(3BBB Bd cf=f^f|(3BBB Bd cABG|cAdB ~e3 d|cadA B3 c:|
|:dAFd cAFc|(3BBB BA BAFA|(3BBB BA BcdB|cacd efgd-|
|dAFd cAFc|(3BBB BA BAFA|BcdB cacd|caec d3 c:|


